X: 40017
T: Three Scones Of Boxty, The
R: reel
M: 4/4
K: Dmajor
|:"Em7" GFEd "A"cBAc|"G"BAGB "A"A2EF|"Em7"GFEd "A"cBAc|"G"BAGE "D"ED~D2:|
"A"cded cA~A2|"G"BAGB "A"A2AB|"A"cded cA~A2|"G"BAGE "D"ED~D2|
"A"cded cA~A2|"G"BAGB "A"A2AB|"A"cdef "G"g2 ed|"A"cAGE "D"ED~D2||

